editor-ia/color/steve-mccurry-capitolio.cube
# Steve McCurry / Kodachrome-inspired — Capitólio Mar de Minas
# editor-ia — import in Lumetri Color > Basic > Input LUT
LUT_3D_SIZE 33
0.013568 0.004243 0.000000
0.061392 0.003078 0.000000
0.103947 0.002041 0.000000
0.144652 0.001050 0.000000
0.184164 0.000087 0.000000
0.222787 0.000000 0.000000
0.260697 0.000000 0.000000
0.298006 0.000000 0.000000
0.334796 0.000000 0.000000
0.371126 0.000000 0.000000
0.407042 0.000000 0.000000
0.442583 0.000000 0.000000
0.477876 0.000000 0.000000
0.512976 0.000000 0.000000
0.547894 0.000000 0.000000
0.582639 0.000000 0.000000
0.617216 0.000000 0.000000
0.651633 0.000000 0.000000
0.685891 0.000000 0.000000
0.719996 0.000000 0.000000
0.753948 0.000000 0.000000
0.787750 0.000000 0.000000
0.821402 0.000000 0.000000
0.854906 0.000000 0.000000
0.885370 0.000000 0.000000
0.906954 0.000000 0.000000
0.928442 0.000000 0.000000
0.949833 0.000000 0.000000
0.971127 0.000000 0.000000
0.992322 0.000000 0.000000
1.000000 0.000000 0.000000
1.000000 0.000000 0.000000
1.000000 0.000000 0.000000
0.011658 0.049277 0.000000
0.060181 0.049097 0.000000
0.102737 0.048061 0.000000
0.143441 0.047069 0.000000
0.182953 0.046106 0.000000
0.221577 0.045166 0.000000
0.259486 0.044242 0.000000
0.296831 0.043355 0.000000
0.333800 0.042569 0.000000
0.370446 0.041878 0.000000
0.406805 0.041275 0.000000
0.442902 0.040753 0.000000
0.478756 0.040304 0.000000
0.514383 0.039924 0.000000
0.549796 0.039605 0.000000
0.585003 0.039343 0.000000
0.620013 0.039133 0.000000
0.654831 0.038971 0.000000
0.689463 0.038850 0.000000
0.723911 0.038768 0.000000
0.758179 0.038721 0.000000
0.792270 0.038703 0.000000
0.826184 0.038713 0.000000
0.859923 0.038746 0.000000
0.888768 0.034077 0.000000
0.910472 0.022458 0.000000
0.932064 0.010914 0.000000
0.953542 0.000000 0.000000
0.974908 0.000000 0.000000
0.996161 0.000000 0.000000
1.000000 0.000000 0.000000
1.000000 0.000000 0.000000
1.000000 0.000000 0.000000
0.010641 0.089424 0.000000
0.055758 0.088281 0.000000
0.101659 0.089010 0.000000
0.142377 0.088027 0.000000
0.182042 0.087158 0.000000
0.220977 0.086408 0.000000
0.259338 0.085763 0.000000
0.297227 0.085209 0.000000
0.334711 0.084739 0.000000
0.371839 0.084344 0.000000
0.408647 0.084017 0.000000
0.445162 0.083752 0.000000
0.481404 0.083541 0.000000
0.517390 0.083381 0.000000
0.553133 0.083265 0.000000
0.588644 0.083190 0.000000
0.623930 0.083150 0.000000
0.658999 0.083141 0.000000
0.693856 0.083159 0.000000
0.728506 0.083200 0.000000
0.762951 0.083261 0.000000
0.797194 0.083338 0.000000
0.831238 0.083427 0.000000
0.865084 0.083525 0.000000
0.892177 0.077073 0.000000
0.913922 0.065471 0.000000
0.935541 0.053937 0.000000
0.957032 0.042469 0.000000
0.978398 0.031063 0.000000
0.999636 0.019717 0.000000
1.000000 0.008429 0.000000
1.000000 0.000000 0.000000
1.000000 0.000000 0.000000
0.009693 0.127839 0.000000
0.055034 0.126840 0.000000
0.095570 0.126072 0.000000
0.142572 0.127948 0.000000
0.182777 0.127410 0.000000
0.222208 0.126966 0.000000
0.261028 0.126602 0.000000
0.299341 0.126308 0.000000
0.337216 0.126078 0.000000
0.374703 0.125904 0.000000
0.411840 0.125779 0.000000
0.448655 0.125698 0.000000
0.485170 0.125655 0.000000
0.521402 0.125645 0.000000
0.557365 0.125665 0.000000
0.593070 0.125709 0.000000
0.628526 0.125773 0.000000
0.663741 0.125854 0.000000
0.698720 0.125947 0.000000
0.733469 0.126049 0.000000
0.767990 0.126157 0.000000
0.802288 0.126267 0.000000
0.836365 0.126377 0.000000
0.870224 0.126482 0.000000
0.895512 0.118228 0.000000
0.917238 0.106619 0.000000
0.938824 0.095072 0.000000
0.960271 0.083586 0.000000
0.981578 0.072156 0.000000
1.000000 0.060782 0.000000
1.000000 0.049460 0.000000
1.000000 0.038188 0.000000
1.000000 0.026964 0.000000
0.009921 0.165863 0.000000
0.055853 0.165240 0.000000
0.096880 0.164786 0.000000
0.136250 0.164432 0.000000
0.185050 0.167441 0.000000
0.224863 0.167231 0.000000
0.264029 0.167080 0.000000
0.302656 0.166979 0.000000
0.340814 0.166923 0.000000
0.378555 0.166904 0.000000
0.415918 0.166918 0.000000
0.452931 0.166959 0.000000
0.489619 0.167022 0.000000
0.525999 0.167103 0.000000
0.562085 0.167198 0.000000
0.597889 0.167303 0.000000
0.633422 0.167414 0.000000
0.668690 0.167527 0.000000
0.703700 0.167640 0.000000
0.738458 0.167748 0.000000
0.772968 0.167849 0.000000
0.807234 0.167939 0.000000
0.841258 0.168016 0.000000
0.875043 0.168076 0.000000
0.898584 0.158111 0.000000
0.920237 0.146472 0.000000
0.941738 0.134891 0.000000
0.963087 0.123365 0.000000
0.984286 0.111891 0.000000
1.000000 0.100468 0.000000
1.000000 0.089092 0.000000
1.000000 0.077762 0.000000
1.000000 0.066475 0.000000
0.011634 0.203981 0.000000
0.058031 0.203656 0.000000
0.099438 0.203443 0.000000
0.139140 0.203302 0.000000
0.177760 0.203216 0.000000
0.228516 0.207240 0.000000
0.267927 0.207239 0.000000
0.306768 0.207270 0.000000
0.345111 0.207327 0.000000
0.383010 0.207405 0.000000
0.420504 0.207500 0.000000
0.457624 0.207606 0.000000
0.494393 0.207719 0.000000
0.530830 0.207836 0.000000
0.566951 0.207952 0.000000
0.602767 0.208064 0.000000
0.638290 0.208169 0.000000
0.673526 0.208263 0.000000
0.708484 0.208343 0.000000
0.743168 0.208406 0.000000
0.777584 0.208449 0.000000
0.811736 0.208469 0.000000
0.845627 0.208465 0.000000
0.879260 0.208432 0.000000
0.901214 0.196946 0.000000
0.922745 0.185257 0.000000
0.944111 0.173621 0.000000
0.965314 0.162035 0.000000
0.986355 0.150498 0.000000
1.000000 0.139005 0.000000
1.000000 0.127557 0.000000
1.000000 0.116149 0.000000
1.000000 0.104780 0.000000
0.014453 0.242121 0.000000
0.061199 0.242018 0.000000
0.102883 0.241982 0.000000
0.142820 0.241991 0.000000
0.181641 0.242033 0.000000
0.219631 0.242102 0.000000
0.272369 0.247034 0.000000
0.311330 0.247139 0.000000
0.349767 0.247254 0.000000
0.387734 0.247374 0.000000
0.425272 0.247495 0.000000
0.462411 0.247613 0.000000
0.499176 0.247724 0.000000
0.535587 0.247824 0.000000
0.571658 0.247910 0.000000
0.607405 0.247979 0.000000
0.642835 0.248028 0.000000
0.677960 0.248053 0.000000
0.712786 0.248052 0.000000
0.747319 0.248022 0.000000
0.781564 0.247960 0.000000
0.815526 0.247864 0.000000
0.849209 0.247732 0.000000
0.881700 0.246645 0.000000
0.903236 0.234835 0.000000
0.924596 0.223077 0.000000
0.945781 0.211367 0.000000
0.966791 0.199703 0.000000
0.987628 0.188083 0.000000
1.000000 0.176504 0.000000
1.000000 0.164963 0.000000
1.000000 0.153460 0.000000
1.000000 0.141992 0.000000
0.018051 0.280183 0.000000
0.065035 0.280233 0.000000
0.106898 0.280311 0.000000
0.146978 0.280411 0.000000
0.185910 0.280524 0.000000
0.223983 0.280645 0.000000
0.261360 0.280769 0.000000
0.316035 0.286510 0.000000
0.354480 0.286629 0.000000
0.392430 0.286739 0.000000
0.429927 0.286835 0.000000
0.467003 0.286914 0.000000
0.503682 0.286972 0.000000
0.539986 0.287007 0.000000
0.575930 0.287015 0.000000
0.611528 0.286993 0.000000
0.646790 0.286938 0.000000
0.681727 0.286848 0.000000
0.716345 0.286719 0.000000
0.750652 0.286550 0.000000
0.784653 0.286339 0.000000
0.818352 0.286081 0.000000
0.851755 0.285776 0.000000
0.883161 0.283720 0.000000
0.904492 0.271827 0.000000
0.925637 0.259981 0.000000
0.946595 0.248179 0.000000
0.967368 0.236419 0.000000
0.987957 0.224698 0.000000
1.000000 0.213014 0.000000
1.000000 0.201369 0.000000
1.000000 0.189783 0.000000
1.000000 0.178258 0.000000
0.022131 0.318055 0.000000
0.069250 0.318190 0.000000
0.111200 0.318324 0.000000
0.151334 0.318458 0.000000
0.190292 0.318588 0.000000
0.228364 0.318709 0.000000
0.265716 0.318817 0.000000
0.302454 0.318909 0.000000
0.358970 0.325360 0.000000
0.396822 0.325409 0.000000
0.434198 0.325431 0.000000
0.471132 0.325423 0.000000
0.507648 0.325381 0.000000
0.543768 0.325303 0.000000
0.579509 0.325186 0.000000
0.614883 0.325027 0.000000
0.649903 0.324823 0.000000
0.684579 0.324572 0.000000
0.718917 0.324272 0.000000
0.752927 0.323921 0.000000
0.786612 0.323515 0.000000
0.819979 0.323054 0.000000
0.853032 0.322534 0.000000
0.883753 0.319934 0.000000
0.904835 0.307940 0.000000
0.925720 0.295988 0.000000
0.946415 0.284080 0.000000
0.966981 0.272235 0.000000
0.987430 0.260458 0.000000
1.000000 0.248745 0.000000
1.000000 0.237097 0.000000
1.000000 0.225511 0.000000
1.000000 0.213986 0.000000
0.026424 0.355621 0.000000
0.073577 0.355778 0.000000
0.115525 0.355911 0.000000
0.155629 0.356026 0.000000
0.194530 0.356119 0.000000
0.232522 0.356189 0.000000
0.269771 0.356231 0.000000
0.306384 0.356243 0.000000
0.342435 0.356222 0.000000
0.400657 0.363287 0.000000
0.437835 0.363188 0.000000
0.474551 0.363046 0.000000
0.510829 0.362858 0.000000
0.546691 0.362621 0.000000
0.582155 0.362334 0.000000
0.617234 0.361993 0.000000
0.651940 0.361597 0.000000
0.686283 0.361143 0.000000
0.720273 0.360628 0.000000
0.753916 0.360052 0.000000
0.787217 0.359410 0.000000
0.820184 0.358703 0.000000
0.852823 0.357930 0.000000
0.883396 0.355312 0.000000
0.904327 0.343257 0.000000
0.925133 0.331274 0.000000
0.945818 0.319361 0.000000
0.966383 0.307516 0.000000
0.986833 0.295739 0.000000
1.000000 0.284026 0.000000
1.000000 0.272378 0.000000
1.000000 0.260791 0.000000
1.000000 0.249267 0.000000
0.030680 0.392766 0.000000
0.077770 0.392883 0.000000
0.119630 0.392960 0.000000
0.159621 0.393003 0.000000
0.198387 0.393010 0.000000
0.236222 0.392980 0.000000
0.273293 0.392908 0.000000
0.309707 0.392794 0.000000
0.345540 0.392633 0.000000
0.380844 0.392423 0.000000
0.440601 0.400005 0.000000
0.477025 0.399684 0.000000
0.512993 0.399305 0.000000
0.548526 0.398866 0.000000
0.583642 0.398365 0.000000
0.618355 0.397800 0.000000
0.652679 0.397169 0.000000
0.686622 0.396469 0.000000
0.720195 0.395699 0.000000
0.753457 0.394889 0.000000
0.786492 0.394084 0.000000
0.819309 0.393284 0.000000
0.851914 0.392490 0.000000
0.882805 0.390191 0.000000
0.903736 0.378135 0.000000
0.924542 0.366152 0.000000
0.945227 0.354239 0.000000
0.965792 0.342395 0.000000
0.986242 0.330617 0.000000
1.000000 0.318905 0.000000
1.000000 0.307256 0.000000
1.000000 0.295670 0.000000
1.000000 0.284145 0.000000
0.034663 0.429375 0.000000
0.081596 0.429392 0.000000
0.123285 0.429360 0.000000
0.163085 0.429280 0.000000
0.201640 0.429153 0.000000
0.239243 0.428974 0.000000
0.276062 0.428743 0.000000
0.312206 0.428455 0.000000
0.347750 0.428110 0.000000
0.382747 0.427704 0.000000
0.417240 0.427236 0.000000
0.478335 0.435236 0.000000
0.513922 0.434624 0.000000
0.549056 0.433940 0.000000
0.583756 0.433184 0.000000
0.618050 0.432361 0.000000
0.652052 0.431533 0.000000
0.685797 0.430711 0.000000
0.719295 0.429895 0.000000
0.752558 0.429085 0.000000
0.785593 0.428280 0.000000
0.818409 0.427480 0.000000
0.851014 0.426686 0.000000
0.882220 0.424702 0.000000
0.903151 0.412646 0.000000
0.923958 0.400663 0.000000
0.944642 0.388750 0.000000
0.965207 0.376906 0.000000
0.985657 0.365128 0.000000
1.000000 0.353416 0.000000
1.000000 0.341767 0.000000
1.000000 0.330181 0.000000
1.000000 0.318656 0.000000
0.038152 0.465334 0.000000
0.084838 0.465193 0.000000
0.126276 0.465001 0.000000
0.165808 0.464750 0.000000
0.204076 0.464440 0.000000
0.241375 0.464068 0.000000
0.277872 0.463630 0.000000
0.313676 0.463126 0.000000
0.348863 0.462553 0.000000
0.383486 0.461908 0.000000
0.417587 0.461190 0.000000
0.451199 0.460397 0.000000
0.513461 0.468748 0.000000
0.548325 0.467899 0.000000
0.582885 0.467057 0.000000
0.617159 0.466222 0.000000
0.651162 0.465394 0.000000
0.684906 0.464572 0.000000
0.718405 0.463756 0.000000
0.751667 0.462945 0.000000
0.784702 0.462140 0.000000
0.817518 0.461341 0.000000
0.850124 0.460547 0.000000
0.881641 0.458874 0.000000
0.902572 0.446819 0.000000
0.923378 0.434835 0.000000
0.944063 0.422923 0.000000
0.964628 0.411078 0.000000
0.985078 0.399300 0.000000
1.000000 0.387588 0.000000
1.000000 0.375939 0.000000
1.000000 0.364353 0.000000
1.000000 0.352828 0.000000
0.040939 0.500534 0.000000
0.087289 0.500179 0.000000
0.128397 0.499776 0.000000
0.167586 0.499307 0.000000
0.205496 0.498768 0.000000
0.242420 0.498156 0.000000
0.278526 0.497469 0.000000
0.313923 0.496705 0.000000
0.348686 0.495862 0.000000
0.382960 0.494995 0.000000
0.416842 0.494137 0.000000
0.450368 0.493288 0.000000
0.483564 0.492448 0.000000
0.547442 0.501447 0.000000
0.582002 0.500605 0.000000
0.616276 0.499770 0.000000
0.650279 0.498942 0.000000
0.684024 0.498120 0.000000
0.717522 0.497304 0.000000
0.750784 0.496494 0.000000
0.783819 0.495689 0.000000
0.816636 0.494889 0.000000
0.849241 0.494095 0.000000
0.881067 0.492731 0.000000
0.901999 0.480676 0.000000
0.922805 0.468693 0.000000
0.943489 0.456780 0.000000
0.964055 0.444935 0.000000
0.984504 0.433158 0.000000
1.000000 0.421445 0.000000
1.000000 0.409797 0.000000
1.000000 0.398211 0.000000
1.000000 0.386686 0.000000
0.042824 0.534868 0.000000
0.088752 0.534243 0.000000
0.129453 0.533580 0.000000
0.168226 0.532846 0.000000
0.205707 0.532033 0.000000
0.242192 0.531141 0.000000
0.277955 0.530236 0.000000
0.313153 0.529345 0.000000
0.347861 0.528466 0.000000
0.382134 0.527599 0.000000
0.416017 0.526741 0.000000
0.449542 0.525892 0.000000
0.482739 0.525052 0.000000
0.515630 0.524219 0.000000
0.581127 0.533861 0.000000
0.615401 0.533026 0.000000
0.649404 0.532198 0.000000
0.683149 0.531376 0.000000
0.716647 0.530560 0.000000
0.749909 0.529750 0.000000
0.782944 0.528945 0.000000
0.815761 0.528145 0.000000
0.848366 0.527351 0.000000
0.880498 0.526293 0.000000
0.901430 0.514238 0.000000
0.922236 0.502255 0.000000
0.942920 0.490342 0.000000
0.963486 0.478498 0.000000
0.983935 0.466720 0.000000
1.000000 0.455008 0.000000
1.000000 0.443359 0.000000
1.000000 0.431773 0.000000
1.000000 0.420248 0.000000
0.043618 0.568230 0.000000
0.089039 0.567282 0.000000
0.129260 0.566314 0.000000
0.167661 0.565341 0.000000
0.204936 0.564398 0.000000
0.241373 0.563475 0.000000
0.277137 0.562570 0.000000
0.312335 0.561679 0.000000
0.347042 0.560800 0.000000
0.381316 0.559932 0.000000
0.415198 0.559075 0.000000
0.448724 0.558226 0.000000
0.481920 0.557385 0.000000
0.514811 0.556553 0.000000
0.547415 0.555727 0.000000
0.614534 0.566007 0.000000
0.648536 0.565179 0.000000
0.682281 0.564357 0.000000
0.715779 0.563540 0.000000
0.749041 0.562730 0.000000
0.782077 0.561925 0.000000
0.814893 0.561126 0.000000
0.847498 0.560332 0.000000
0.879899 0.559542 0.000000
0.900866 0.547522 0.000000
0.921672 0.535539 0.000000
0.942356 0.523626 0.000000
0.962922 0.511782 0.000000
0.983370 0.500004 0.000000
1.000000 0.488291 0.000000
1.000000 0.476642 0.000000
1.000000 0.465055 0.000000
1.000000 0.453528 0.000000
0.043185 0.600550 0.000000
0.088301 0.599408 0.000000
0.128448 0.598392 0.000000
0.166849 0.597419 0.000000
0.204124 0.596476 0.000000
0.240561 0.595553 0.000000
0.276325 0.594648 0.000000
0.311522 0.593757 0.000000
0.346230 0.592878 0.000000
0.380504 0.592010 0.000000
0.414386 0.591153 0.000000
0.447912 0.590304 0.000000
0.481108 0.589463 0.000000
0.513999 0.588631 0.000000
0.546603 0.587805 0.000000
0.578937 0.586987 0.000000
0.647676 0.597898 0.000000
0.681420 0.597076 0.000000
0.714918 0.596260 0.000000
0.748181 0.595450 0.000000
0.781216 0.594645 0.000000
0.814032 0.593846 0.000000
0.846637 0.593051 0.000000
0.879038 0.592262 0.000000
0.900306 0.580543 0.000000
0.921104 0.568560 0.000000
0.941766 0.556646 0.000000
0.962295 0.544801 0.000000
0.982695 0.533022 0.000000
1.000000 0.521308 0.000000
1.000000 0.509657 0.000000
1.000000 0.498068 0.000000
1.000000 0.486541 0.000000
0.042379 0.632385 0.000000
0.087495 0.631242 0.000000
0.127642 0.630226 0.000000
0.166043 0.629254 0.000000
0.203318 0.628310 0.000000
0.239755 0.627388 0.000000
0.275519 0.626482 0.000000
0.310717 0.625591 0.000000
0.345424 0.624713 0.000000
0.379698 0.623845 0.000000
0.413580 0.622987 0.000000
0.447106 0.622138 0.000000
0.480302 0.621298 0.000000
0.513193 0.620465 0.000000
0.545797 0.619640 0.000000
0.578131 0.618821 0.000000
0.610209 0.618009 0.000000
0.680566 0.629547 0.000000
0.714064 0.628731 0.000000
0.747326 0.627921 0.000000
0.780362 0.627116 0.000000
0.813174 0.626315 0.000000
0.845754 0.625512 0.000000
0.878108 0.624705 0.000000
0.899657 0.613311 0.000000
0.920405 0.601326 0.000000
0.941018 0.589411 0.000000
0.961501 0.577564 0.000000
0.981857 0.565784 0.000000
1.000000 0.554069 0.000000
1.000000 0.542417 0.000000
1.000000 0.530827 0.000000
1.000000 0.519299 0.000000
0.041579 0.663987 0.000000
0.086695 0.662845 0.000000
0.126842 0.661828 0.000000
0.165243 0.660856 0.000000
0.202518 0.659912 0.000000
0.238955 0.658990 0.000000
0.274719 0.658085 0.000000
0.309916 0.657193 0.000000
0.344624 0.656315 0.000000
0.378898 0.655447 0.000000
0.412780 0.654589 0.000000
0.446306 0.653741 0.000000
0.479502 0.652900 0.000000
0.512393 0.652067 0.000000
0.544997 0.651242 0.000000
0.577331 0.650423 0.000000
0.609409 0.649611 0.000000
0.641243 0.648805 0.000000
0.713205 0.660961 0.000000
0.746431 0.660138 0.000000
0.779408 0.659312 0.000000
0.812144 0.658482 0.000000
0.844648 0.657651 0.000000
0.876928 0.656817 0.000000
0.898844 0.645835 0.000000
0.919548 0.633849 0.000000
0.940120 0.621932 0.000000
0.960563 0.610085 0.000000
0.980881 0.598303 0.000000
1.000000 0.586587 0.000000
1.000000 0.574934 0.000000
1.000000 0.563343 0.000000
1.000000 0.551814 0.000000
0.040784 0.695366 0.000000
0.085901 0.694224 0.000000
0.126048 0.693208 0.000000
0.164448 0.692235 0.000000
0.201724 0.691292 0.000000
0.238161 0.690369 0.000000
0.273924 0.689464 0.000000
0.309122 0.688573 0.000000
0.343830 0.687694 0.000000
0.378103 0.686826 0.000000
0.411986 0.685969 0.000000
0.445511 0.685120 0.000000
0.478708 0.684280 0.000000
0.511598 0.683447 0.000000
0.544202 0.682621 0.000000
0.576517 0.681796 0.000000
0.608553 0.680967 0.000000
0.640324 0.680137 0.000000
0.671840 0.679304 0.000000
0.745301 0.692039 0.000000
0.778205 0.691186 0.000000
0.810871 0.690331 0.000000
0.843308 0.689475 0.000000
0.875524 0.688617 0.000000
0.897892 0.678125 0.000000
0.918559 0.666138 0.000000
0.939095 0.654221 0.000000
0.959503 0.642372 0.000000
0.979789 0.630589 0.000000
0.999953 0.618872 0.000000
1.000000 0.607219 0.000000
1.000000 0.595627 0.000000
1.000000 0.584097 0.000000
0.039995 0.726531 0.000000
0.085112 0.725389 0.000000
0.125259 0.724373 0.000000
0.163659 0.723401 0.000000
0.200935 0.722457 0.000000
0.237372 0.721535 0.000000
0.273135 0.720629 0.000000
0.308333 0.719738 0.000000
0.343041 0.718859 0.000000
0.377314 0.717992 0.000000
0.411197 0.717134 0.000000
0.444720 0.716284 0.000000
0.477893 0.715435 0.000000
0.510735 0.714584 0.000000
0.543267 0.713731 0.000000
0.575507 0.712876 0.000000
0.607471 0.712021 0.000000
0.639173 0.711164 0.000000
0.670624 0.710306 0.000000
0.701835 0.709447 0.000000
0.776785 0.722759 0.000000
0.809390 0.721882 0.000000
0.841770 0.721005 0.000000
0.873931 0.720127 0.000000
0.896823 0.710191 0.000000
0.917458 0.698203 0.000000
0.937964 0.686285 0.000000
0.958344 0.674436 0.000000
0.978602 0.662653 0.000000
0.998742 0.650935 0.000000
1.000000 0.639280 0.000000
1.000000 0.627689 0.000000
1.000000 0.616158 0.000000
0.039211 0.757490 0.000000
0.084328 0.756348 0.000000
0.124475 0.755332 0.000000
0.162876 0.754360 0.000000
0.200151 0.753416 0.000000
0.236588 0.752494 0.000000
0.272352 0.751588 0.000000
0.307549 0.750697 0.000000
0.342254 0.749817 0.000000
0.376500 0.748939 0.000000
0.410330 0.748061 0.000000
0.443778 0.747183 0.000000
0.476874 0.746304 0.000000
0.509644 0.745425 0.000000
0.542106 0.744545 0.000000
0.574281 0.743666 0.000000
0.606181 0.742786 0.000000
0.637823 0.741906 0.000000
0.669217 0.741026 0.000000
0.700373 0.740147 0.000000
0.731303 0.739267 0.000000
0.807736 0.753157 0.000000
0.840067 0.752261 0.000000
0.872182 0.751367 0.000000
0.895658 0.742043 0.000000
0.916267 0.730054 0.000000
0.936748 0.718135 0.000000
0.957106 0.706285 0.000000
0.977343 0.694501 0.000000
0.997463 0.682783 0.000000
1.000000 0.671128 0.000000
1.000000 0.659536 0.000000
1.000000 0.648005 0.000000
0.038433 0.788250 0.000000
0.083550 0.787108 0.000000
0.123696 0.786091 0.000000
0.162097 0.785119 0.000000
0.199372 0.784176 0.000000
0.235807 0.783252 0.000000
0.271543 0.782337 0.000000
0.306686 0.781424 0.000000
0.341313 0.780515 0.000000
0.375481 0.779607 0.000000
0.409236 0.778700 0.000000
0.442614 0.777795 0.000000
0.475644 0.776891 0.000000
0.508349 0.775987 0.000000
0.540751 0.775084 0.000000
0.572868 0.774183 0.000000
0.604715 0.773282 0.000000
0.636305 0.772383 0.000000
0.667650 0.771484 0.000000
0.698761 0.770587 0.000000
0.729648 0.769692 0.000000
0.760319 0.768798 0.000000
0.838230 0.783264 0.000000
0.870308 0.782356 0.000000
0.894418 0.773687 0.000000
0.915006 0.761697 0.000000
0.935468 0.749778 0.000000
0.955808 0.737927 0.000000
0.976030 0.726143 0.000000
0.996136 0.714424 0.000000
1.000000 0.702769 0.000000
1.000000 0.691177 0.000000
1.000000 0.679645 0.000000
0.037659 0.818817 0.000000
0.082776 0.817675 0.000000
0.122922 0.816658 0.000000
0.161301 0.815678 0.000000
0.198523 0.814713 0.000000
0.234878 0.813759 0.000000
0.270533 0.812813 0.000000
0.305599 0.811871 0.000000
0.340153 0.810934 0.000000
0.374253 0.810000 0.000000
0.407943 0.809068 0.000000
0.441260 0.808139 0.000000
0.474231 0.807213 0.000000
0.506881 0.806288 0.000000
0.539232 0.805366 0.000000
0.571300 0.804445 0.000000
0.603101 0.803527 0.000000
0.634648 0.802611 0.000000
0.665953 0.801698 0.000000
0.697027 0.800786 0.000000
0.727880 0.799878 0.000000
0.758519 0.798972 0.000000
0.788953 0.798068 0.000000
0.868340 0.813111 0.000000
0.893122 0.805130 0.000000
0.913694 0.793141 0.000000
0.934143 0.781221 0.000000
0.954472 0.769370 0.000000
0.974683 0.757585 0.000000
0.994781 0.745866 0.000000
1.000000 0.734211 0.000000
1.000000 0.722618 0.000000
1.000000 0.711087 0.000000
0.036884 0.849194 0.000000
0.081954 0.848034 0.000000
0.122021 0.846987 0.000000
0.160312 0.845973 0.000000
0.197453 0.844978 0.000000
0.233732 0.843995 0.000000
0.269316 0.843021 0.000000
0.304315 0.842053 0.000000
0.338805 0.841092 0.000000
0.372846 0.840135 0.000000
0.406480 0.839182 0.000000
0.439744 0.838233 0.000000
0.472665 0.837288 0.000000
0.505270 0.836345 0.000000
0.537577 0.835406 0.000000
0.569605 0.834471 0.000000
0.601369 0.833538 0.000000
0.632881 0.832609 0.000000
0.664155 0.831683 0.000000
0.695200 0.830761 0.000000
0.726026 0.829842 0.000000
0.756641 0.828927 0.000000
0.787054 0.828015 0.000000
0.817271 0.827108 0.000000
0.891789 0.836380 0.000000
0.912352 0.824390 0.000000
0.932793 0.812470 0.000000
0.953114 0.800619 0.000000
0.973321 0.788835 0.000000
0.993415 0.777115 0.000000
1.000000 0.765460 0.000000
1.000000 0.753867 0.000000
1.000000 0.742335 0.000000
0.035950 0.879327 0.000000
0.080920 0.878129 0.000000
0.120902 0.877049 0.000000
0.159117 0.876006 0.000000
0.196186 0.874983 0.000000
0.232399 0.873975 0.000000
0.267921 0.872977 0.000000
0.302862 0.871988 0.000000
0.337298 0.871005 0.000000
0.371288 0.870029 0.000000
0.404875 0.869058 0.000000
0.438095 0.868092 0.000000
0.470976 0.867131 0.000000
0.503543 0.866175 0.000000
0.535816 0.865222 0.000000
0.567812 0.864275 0.000000
0.599546 0.863331 0.000000
0.631032 0.862392 0.000000
0.662282 0.861457 0.000000
0.693306 0.860526 0.000000
0.724114 0.859601 0.000000
0.754713 0.858679 0.000000
0.785112 0.857762 0.000000
0.815318 0.856851 0.000000
0.845337 0.855943 0.000000
0.910996 0.855452 0.000000
0.931434 0.843532 0.000000
0.951754 0.831681 0.000000
0.971961 0.819896 0.000000
0.992056 0.808177 0.000000
1.000000 0.796522 0.000000
1.000000 0.784929 0.000000
1.000000 0.773398 0.000000
0.024586 0.898980 0.000000
0.069899 0.898180 0.000000
0.110195 0.897460 0.000000
0.148717 0.896765 0.000000
0.186091 0.896085 0.000000
0.222606 0.895415 0.000000
0.258432 0.894753 0.000000
0.293677 0.894098 0.000000
0.328418 0.893448 0.000000
0.362713 0.892803 0.000000
0.396607 0.892163 0.000000
0.430134 0.891526 0.000000
0.463324 0.890893 0.000000
0.496200 0.890264 0.000000
0.528783 0.889639 0.000000
0.561091 0.889017 0.000000
0.593137 0.888398 0.000000
0.624937 0.887783 0.000000
0.656500 0.887172 0.000000
0.687839 0.886564 0.000000
0.718961 0.885959 0.000000
0.749876 0.885358 0.000000
0.780591 0.884761 0.000000
0.811113 0.884167 0.000000
0.841448 0.883578 0.000000
