editor-ia/color/steve-mccurry-capitolio.cube
# Steve McCurry / Kodachrome-inspired — Capitólio Mar de Minas
# editor-ia — import in Lumetri Color > Basic > Input LUT
LUT_3D_SIZE 5
0.013568 0.004243 0.000000
0.334796 0.000000 0.000000
0.617216 0.000000 0.000000
0.885370 0.000000 0.000000
1.000000 0.000000 0.000000
0.022131 0.318055 0.000000
0.358970 0.325360 0.000000
0.649903 0.324823 0.000000
0.904835 0.307940 0.000000
1.000000 0.213986 0.000000
0.043185 0.600550 0.000000
0.346230 0.592878 0.000000
0.647676 0.597898 0.000000
0.900306 0.580543 0.000000
1.000000 0.486541 0.000000
0.036884 0.849194 0.000000
0.338805 0.841092 0.000000
0.601369 0.833538 0.000000
0.891789 0.836380 0.000000
1.000000 0.742335 0.000000
0.000000 1.000000 0.000000
0.256346 1.000000 0.000000
0.520953 1.000000 0.000000
0.769955 0.996900 0.000000
1.000000 0.986024 0.000000
0.005128 0.000000 0.292086
0.308179 0.000000 0.284412
0.576971 0.000000 0.276785
0.834331 0.000000 0.268481
1.000000 0.000000 0.189526
0.019061 0.313319 0.279432
0.355268 0.320254 0.268751
0.644467 0.318653 0.260193
0.899639 0.302997 0.242848
1.000000 0.209007 0.148978
0.035513 0.592878 0.267390
0.338558 0.585206 0.259718
0.639543 0.590073 0.253015
0.894933 0.575562 0.238718
1.000000 0.481550 0.145598
0.029039 0.841456 0.261149
0.330380 0.833131 0.253994
0.592624 0.825456 0.248061
0.885667 0.831377 0.239580
1.000000 0.737333 0.147595
0.000000 1.000000 0.188745
0.250334 1.000000 0.185314
0.515121 0.996292 0.182140
0.764430 0.991758 0.178825
1.000000 0.981042 0.147645
0.000000 0.000000 0.556870
0.302045 0.000000 0.549065
0.573003 0.000000 0.540939
0.831459 0.000000 0.532382
1.000000 0.000000 0.454318
0.016409 0.312292 0.554148
0.331707 0.309346 0.532786
0.602732 0.306625 0.524643
0.851989 0.300720 0.518208
1.000000 0.221627 0.439115
0.028809 0.586175 0.532175
0.331855 0.578503 0.524503
0.632438 0.583235 0.517799
0.890109 0.571205 0.506190
1.000000 0.477186 0.413323
0.022001 0.834624 0.526035
0.322899 0.826130 0.519014
0.584920 0.818369 0.513149
0.880311 0.827006 0.507574
1.000000 0.732963 0.415549
0.000000 1.000000 0.456344
0.245123 0.996720 0.452876
0.510115 0.991749 0.449598
0.759738 0.987305 0.446125
1.000000 0.976691 0.414917
0.000000 0.000000 0.805516
0.297062 0.000000 0.797409
0.569736 0.000000 0.788887
0.828920 0.000000 0.780162
1.000000 0.000000 0.703044
0.013833 0.308331 0.806893
0.328015 0.304713 0.780832
0.597028 0.300707 0.773153
0.845694 0.294425 0.766854
1.000000 0.217536 0.689965
0.022514 0.585679 0.796437
0.325560 0.577930 0.788612
0.590333 0.565500 0.766449
0.838142 0.558885 0.760408
1.000000 0.484580 0.687335
0.015253 0.828156 0.774819
0.315789 0.819523 0.767908
0.577648 0.811700 0.762091
0.872747 0.820363 0.756690
1.000000 0.728860 0.667138
0.000000 0.998231 0.707631
0.240279 0.992412 0.704105
0.505505 0.987508 0.700709
0.755462 0.983160 0.697068
1.000000 0.972606 0.665899
0.000000 0.000000 0.985543
0.239081 0.000000 0.979995
0.516193 0.000000 0.974253
0.778890 0.000000 0.968519
1.000000 0.000000 0.940097
0.000000 0.245756 0.989001
0.275970 0.251950 0.969201
0.545549 0.249221 0.964504
0.796399 0.245130 0.960412
1.000000 0.213638 0.928921
0.000000 0.524311 0.982720
0.266991 0.519301 0.977634
0.541035 0.516283 0.960175
0.790531 0.511593 0.956324
1.000000 0.480657 0.926796
0.000000 0.776944 0.978851
0.258161 0.770546 0.974328
0.521973 0.764666 0.970494
0.776578 0.758084 0.953989
0.990998 0.731200 0.928825
0.000000 0.994100 0.946997
0.235721 0.988325 0.943394
0.501207 0.983496 0.939867
0.751515 0.979248 0.936048
1.000000 0.968714 0.904981
