editor-ia/color/steve-mccurry-capitolio.cube
# Steve McCurry / Kodachrome-inspired — Capitólio Mar de Minas
# editor-ia — import in Lumetri Color > Basic > Input LUT
LUT_3D_SIZE 9
0.013568 0.004243 0.000000
0.184164 0.000087 0.000000
0.334796 0.000000 0.000000
0.477876 0.000000 0.000000
0.617216 0.000000 0.000000
0.753948 0.000000 0.000000
0.885370 0.000000 0.000000
0.971127 0.000000 0.000000
1.000000 0.000000 0.000000
0.009921 0.165863 0.000000
0.185050 0.167441 0.000000
0.340814 0.166923 0.000000
0.489619 0.167022 0.000000
0.633422 0.167414 0.000000
0.772968 0.167849 0.000000
0.898584 0.158111 0.000000
0.984286 0.111891 0.000000
1.000000 0.066475 0.000000
0.022131 0.318055 0.000000
0.190292 0.318588 0.000000
0.358970 0.325360 0.000000
0.507648 0.325381 0.000000
0.649903 0.324823 0.000000
0.786612 0.323515 0.000000
0.904835 0.307940 0.000000
0.987430 0.260458 0.000000
1.000000 0.213986 0.000000
0.038152 0.465334 0.000000
0.204076 0.464440 0.000000
0.348863 0.462553 0.000000
0.513461 0.468748 0.000000
0.651162 0.465394 0.000000
0.784702 0.462140 0.000000
0.902572 0.446819 0.000000
0.985078 0.399300 0.000000
1.000000 0.352828 0.000000
0.043185 0.600550 0.000000
0.204124 0.596476 0.000000
0.346230 0.592878 0.000000
0.481108 0.589463 0.000000
0.647676 0.597898 0.000000
0.781216 0.594645 0.000000
0.900306 0.580543 0.000000
0.982695 0.533022 0.000000
1.000000 0.486541 0.000000
0.039995 0.726531 0.000000
0.200935 0.722457 0.000000
0.343041 0.718859 0.000000
0.477893 0.715435 0.000000
0.607471 0.712021 0.000000
0.776785 0.722759 0.000000
0.896823 0.710191 0.000000
0.978602 0.662653 0.000000
1.000000 0.616158 0.000000
0.036884 0.849194 0.000000
0.197453 0.844978 0.000000
0.338805 0.841092 0.000000
0.472665 0.837288 0.000000
0.601369 0.833538 0.000000
0.726026 0.829842 0.000000
0.891789 0.836380 0.000000
0.973321 0.788835 0.000000
1.000000 0.742335 0.000000
0.001119 0.937351 0.000000
0.162227 0.934341 0.000000
0.304294 0.931630 0.000000
0.439032 0.929027 0.000000
0.568756 0.926506 0.000000
0.694561 0.924061 0.000000
0.817094 0.921693 0.000000
0.968065 0.912012 0.000000
1.000000 0.865518 0.000000
0.000000 1.000000 0.000000
0.114440 1.000000 0.000000
0.256346 1.000000 0.000000
0.391085 1.000000 0.000000
0.520953 1.000000 0.000000
0.647030 0.999156 0.000000
0.769955 0.996900 0.000000
0.890152 0.994754 0.000000
1.000000 0.986024 0.000000
0.008726 0.000086 0.149980
0.169665 0.000000 0.145905
0.311771 0.000000 0.142308
0.447188 0.000000 0.138769
0.579348 0.000000 0.134960
0.708882 0.000000 0.130952
0.835985 0.000000 0.126823
0.932457 0.000000 0.094400
1.000000 0.000000 0.047426
0.006858 0.162434 0.145397
0.182551 0.164403 0.140303
0.338771 0.164164 0.135490
0.487832 0.164421 0.130751
0.631719 0.164864 0.126116
0.771193 0.165255 0.121636
0.897291 0.156082 0.108049
0.982768 0.109771 0.057998
1.000000 0.064230 0.009583
0.020486 0.315530 0.137827
0.188664 0.316075 0.132084
0.357058 0.322682 0.127085
0.505381 0.322485 0.122506
0.647131 0.321616 0.118337
0.783197 0.319914 0.114598
0.902118 0.305332 0.099408
0.984623 0.257813 0.051950
1.000000 0.211341 0.005538
0.035963 0.462463 0.130057
0.201252 0.461163 0.124980
0.345285 0.458796 0.120938
0.509142 0.464592 0.117486
0.646843 0.461238 0.114198
0.780383 0.457985 0.111008
0.899765 0.444174 0.097260
0.982270 0.396656 0.049803
1.000000 0.350184 0.003390
0.039110 0.596476 0.125284
0.200050 0.592401 0.121210
0.342156 0.588804 0.117612
0.477034 0.585389 0.114198
0.643357 0.593742 0.110909
0.776897 0.590489 0.107719
0.897473 0.577898 0.095217
0.979763 0.530374 0.047970
1.000000 0.483891 0.001949
0.035921 0.722457 0.122095
0.196861 0.718383 0.118021
0.338966 0.714785 0.114423
0.473724 0.711324 0.111045
0.603156 0.707854 0.107900
0.772083 0.718462 0.104940
0.893699 0.707538 0.094753
0.975426 0.659998 0.048057
1.000000 0.613502 0.002478
0.032747 0.845096 0.119010
0.193132 0.840809 0.115104
0.334351 0.836872 0.111775
0.468108 0.833028 0.108700
0.596736 0.829250 0.105799
0.721341 0.825534 0.103027
0.888540 0.833723 0.095754
0.970065 0.786178 0.049256
1.000000 0.739679 0.003777
0.000000 0.934588 0.087266
0.159096 0.931554 0.085296
0.301114 0.928829 0.083637
0.435826 0.926218 0.082105
0.565544 0.923696 0.080643
0.691362 0.921255 0.079216
0.813926 0.918895 0.077797
0.964881 0.909357 0.050377
1.000000 0.862864 0.004681
0.000000 1.000000 0.045131
0.111228 1.000000 0.043318
0.253148 1.000000 0.041709
0.387922 1.000000 0.040145
0.517843 0.998741 0.038581
0.643991 0.996395 0.036987
0.767002 0.994164 0.035343
0.887299 0.992047 0.033630
1.000000 0.983378 0.004181
0.005128 0.000000 0.292086
0.166068 0.000000 0.288011
0.308179 0.000000 0.284412
0.444238 0.000000 0.280725
0.576971 0.000000 0.276785
0.706933 0.000000 0.272678
0.834331 0.000000 0.268481
0.931495 0.000000 0.236535
1.000000 0.000000 0.189526
0.004375 0.161143 0.292990
0.170292 0.158649 0.282023
0.317992 0.158620 0.277136
0.458774 0.158973 0.272360
0.594533 0.159419 0.267722
0.726002 0.159731 0.263267
0.853518 0.159720 0.259043
0.943205 0.125191 0.221062
1.000000 0.082070 0.175431
0.019061 0.313319 0.279432
0.187189 0.313831 0.273700
0.355268 0.320254 0.268751
0.503219 0.319829 0.264253
0.644467 0.318653 0.260193
0.779912 0.316569 0.256589
0.899639 0.302997 0.242848
0.982144 0.255479 0.195391
1.000000 0.209007 0.148978
0.033873 0.459827 0.271815
0.198536 0.458128 0.266882
0.341846 0.455299 0.263007
0.505328 0.460923 0.259592
0.643029 0.457568 0.256303
0.776570 0.454315 0.253114
0.897286 0.441839 0.240701
0.979792 0.394321 0.193243
1.000000 0.347849 0.146830
0.035513 0.592878 0.267390
0.196452 0.588804 0.263316
0.338558 0.585206 0.259718
0.473436 0.581791 0.256303
0.639543 0.590073 0.253015
0.773083 0.586819 0.249825
0.894933 0.575562 0.238718
0.977140 0.528035 0.191552
1.000000 0.481550 0.145598
0.032323 0.718859 0.264201
0.193263 0.714785 0.260126
0.335366 0.711186 0.256529
0.469990 0.707675 0.253192
0.599300 0.704158 0.250084
0.767890 0.714653 0.247154
0.890920 0.705195 0.238487
0.972606 0.657654 0.191832
1.000000 0.611157 0.146282
0.029039 0.841456 0.261149
0.189271 0.837111 0.257290
0.330380 0.833131 0.253994
0.464056 0.829257 0.250944
0.592624 0.825456 0.248061
0.717191 0.821725 0.245300
0.885667 0.831377 0.239580
0.967191 0.783832 0.193083
1.000000 0.737333 0.147595
0.000000 0.932141 0.230822
0.156314 0.929088 0.228885
0.298295 0.926352 0.227245
0.432990 0.923737 0.225721
0.562711 0.921215 0.224258
0.688547 0.918780 0.222821
0.811144 0.916429 0.221386
0.962088 0.907013 0.194126
1.000000 0.860522 0.148382
0.000000 1.000000 0.188745
0.108394 1.000000 0.186933
0.250334 1.000000 0.185314
0.385146 0.998741 0.183731
0.515121 0.996292 0.182140
0.641337 0.993966 0.180512
0.764430 0.991758 0.178825
0.884823 0.989669 0.177064
1.000000 0.981042 0.147645
0.001713 0.000000 0.426964
0.162653 0.000000 0.422889
0.304941 0.000000 0.419250
0.441650 0.000000 0.415413
0.574880 0.000000 0.411358
0.705203 0.000000 0.407167
0.832839 0.000000 0.402916
0.930605 0.000000 0.371420
1.000000 0.000000 0.324402
0.002193 0.158488 0.430276
0.168583 0.156322 0.416508
0.316539 0.156457 0.411562
0.457424 0.156875 0.406762
0.593153 0.157302 0.402131
0.724472 0.157518 0.397711
0.851728 0.157342 0.393547
0.941806 0.123335 0.356402
1.000000 0.080082 0.311038
0.017714 0.314336 0.422110
0.185739 0.314787 0.416288
0.333455 0.311652 0.403235
0.472651 0.310993 0.398824
0.605409 0.309524 0.394878
0.732587 0.307097 0.391413
0.855278 0.304009 0.388301
0.941766 0.267718 0.352011
1.000000 0.223765 0.308058
0.031736 0.457228 0.406399
0.195747 0.455113 0.401616
0.338432 0.451885 0.397885
0.501709 0.457440 0.394470
0.639410 0.454085 0.391182
0.772950 0.450832 0.387992
0.894934 0.439623 0.376846
0.977439 0.392105 0.329388
1.000000 0.345633 0.282975
0.032098 0.589463 0.402268
0.193038 0.585389 0.398194
0.335143 0.581791 0.394596
0.470022 0.578377 0.391182
0.635924 0.586590 0.387893
0.769454 0.583333 0.384706
0.892490 0.573343 0.374951
0.974623 0.525814 0.327857
1.000000 0.479327 0.281964
0.028908 0.715445 0.399079
0.189848 0.711370 0.395004
0.331910 0.707756 0.391420
0.466402 0.704193 0.388123
0.595603 0.700635 0.385048
0.763878 0.711026 0.382145
0.888265 0.702970 0.374928
0.969916 0.655428 0.328307
1.000000 0.608930 0.282779
0.025474 0.837984 0.396073
0.185569 0.833586 0.392255
0.326582 0.829570 0.388989
0.460187 0.825668 0.385960
0.588706 0.821848 0.383092
0.713243 0.818106 0.380340
0.882939 0.829151 0.376093
0.964465 0.781605 0.329593
1.000000 0.735107 0.284091
0.000000 0.929813 0.367087
0.153660 0.926744 0.365178
0.295612 0.923999 0.363552
0.430298 0.921382 0.362033
0.560026 0.918862 0.360566
0.685886 0.916433 0.359118
0.808520 0.914094 0.357663
0.959453 0.904789 0.330547
1.000000 0.858299 0.284755
0.000000 1.000000 0.325057
0.105708 1.000000 0.323242
0.247673 0.998977 0.321610
0.382527 0.996407 0.320006
0.512559 0.993974 0.318386
0.638846 0.991669 0.316722
0.762024 0.989485 0.314993
0.882512 0.987423 0.313184
1.000000 0.978826 0.283791
0.000000 0.000000 0.556870
0.159364 0.000000 0.552796
0.302045 0.000000 0.549065
0.439337 0.000000 0.545094
0.573003 0.000000 0.540939
0.703634 0.000000 0.536677
0.831459 0.000000 0.532382
0.929760 0.000000 0.501323
1.000000 0.000000 0.454318
0.000238 0.156026 0.562467
0.167030 0.154141 0.546014
0.315186 0.154404 0.541022
0.456127 0.154858 0.536209
0.591785 0.155239 0.531594
0.722919 0.155337 0.527217
0.849885 0.154976 0.523120
0.940356 0.121502 0.486846
1.000000 0.078111 0.441760
0.016409 0.312292 0.554148
0.184281 0.312645 0.548362
0.331707 0.309346 0.532786
0.470493 0.308426 0.528470
0.602732 0.306625 0.524643
0.729324 0.303825 0.521313
0.851989 0.300720 0.518208
0.939628 0.265581 0.483069
1.000000 0.221627 0.439115
0.029522 0.459171 0.546779
0.192854 0.456597 0.542060
0.335143 0.453082 0.538347
0.470022 0.445182 0.524377
0.599928 0.441893 0.521088
0.725909 0.438703 0.517899
0.848574 0.435598 0.514793
0.937409 0.401654 0.480849
1.000000 0.357701 0.436896
0.028809 0.586175 0.532175
0.189749 0.582100 0.528100
0.331855 0.578503 0.524503
0.466733 0.575088 0.521088
0.632438 0.583235 0.517799
0.765914 0.579958 0.514628
0.890109 0.571205 0.506190
0.972175 0.523675 0.459162
1.000000 0.477186 0.413323
0.025620 0.712156 0.528985
0.186559 0.708082 0.524911
0.328537 0.704435 0.521352
0.462908 0.700826 0.518091
0.592010 0.697230 0.515046
0.759987 0.707522 0.512167
0.885695 0.700827 0.506353
0.967316 0.653284 0.459760
1.000000 0.606786 0.414251
0.022001 0.834624 0.526035
0.181973 0.830179 0.522254
0.322899 0.826130 0.519014
0.456442 0.822205 0.516005
0.584920 0.818369 0.513149
0.709434 0.814618 0.510404
0.880311 0.827006 0.507574
0.961844 0.779461 0.461067
1.000000 0.732963 0.415549
0.000000 0.927565 0.498337
0.151092 0.924483 0.496452
0.293023 0.921732 0.494837
0.427706 0.919113 0.493319
0.557447 0.916598 0.491846
0.683334 0.914177 0.490384
0.806009 0.911849 0.488909
0.956933 0.902648 0.461922
1.000000 0.856159 0.416079
0.000000 1.000000 0.456344
0.103127 0.999452 0.454523
0.245123 0.996720 0.452876
0.380022 0.994164 0.451249
0.510115 0.991749 0.449598
0.636476 0.989464 0.447897
0.759738 0.987305 0.446125
0.880324 0.985271 0.444267
1.000000 0.976691 0.414917
0.000000 0.000000 0.682851
0.156175 0.000000 0.678777
0.299433 0.000000 0.674914
0.437248 0.000000 0.670822
0.571299 0.000000 0.666578
0.702189 0.000000 0.662257
0.830160 0.000000 0.657928
0.928943 0.000000 0.627300
1.000000 0.000000 0.580327
0.000000 0.153717 0.690635
0.165599 0.152073 0.671590
0.313906 0.152433 0.666563
0.454859 0.152894 0.661748
0.590409 0.153207 0.657158
0.721326 0.153166 0.652830
0.847973 0.152602 0.648807
0.938845 0.119678 0.613441
1.000000 0.076142 0.568646
0.015120 0.310296 0.682202
0.182796 0.310522 0.676462
0.329897 0.307037 0.658449
0.468245 0.305837 0.654234
0.599942 0.303690 0.650533
0.726135 0.300636 0.647295
0.848799 0.297530 0.644189
0.937555 0.263508 0.610166
1.000000 0.219554 0.566213
0.027214 0.456518 0.675072
0.189838 0.453488 0.670520
0.331954 0.449861 0.666848
0.466832 0.441992 0.650358
0.596739 0.438703 0.647069
0.722720 0.435514 0.643880
0.845385 0.432409 0.640775
0.935335 0.399581 0.607947
1.000000 0.355627 0.564004
0.025620 0.588815 0.671319
0.186559 0.584700 0.667163
0.328665 0.581066 0.663494
0.463543 0.577618 0.660011
0.593450 0.568610 0.643781
0.719279 0.565362 0.640637
0.841473 0.562076 0.637675
0.932321 0.530594 0.606691
1.000000 0.486611 0.563340
0.022430 0.708967 0.654967
0.183370 0.704892 0.650892
0.325226 0.701199 0.647370
0.459485 0.697547 0.644143
0.588498 0.693917 0.641125
0.756189 0.704115 0.638267
0.883190 0.698749 0.633818
0.964786 0.651205 0.587250
1.000000 0.604706 0.541755
0.018597 0.831353 0.652082
0.178457 0.826865 0.648335
0.319306 0.822786 0.645118
0.452795 0.818840 0.642125
0.581239 0.814992 0.639279
0.705737 0.811235 0.636539
0.876559 0.823722 0.633876
0.959307 0.777381 0.588564
1.000000 0.730884 0.543026
0.000000 0.925381 0.625630
0.148594 0.922287 0.623764
0.290509 0.919532 0.622157
0.425195 0.916914 0.620638
0.554953 0.914404 0.619156
0.680872 0.911992 0.617678
0.803591 0.909677 0.616181
0.954506 0.900571 0.589311
1.000000 0.854084 0.543416
0.000000 1.000000 0.583664
0.100631 0.997257 0.581835
0.242661 0.994536 0.580169
0.377611 0.991993 0.578517
0.507767 0.989597 0.576834
0.634204 0.987334 0.575094
0.757555 0.985200 0.573278
0.878239 0.983194 0.571370
1.000000 0.974622 0.542082
0.000000 0.000000 0.805516
0.153174 0.000000 0.801418
0.297062 0.000000 0.797409
0.435349 0.000000 0.793209
0.569736 0.000000 0.788887
0.700842 0.000000 0.784516
0.828920 0.000000 0.780162
0.928141 0.000000 0.749965
1.000000 0.000000 0.703044
0.000000 0.151537 0.815404
0.164263 0.150097 0.793847
0.312677 0.150524 0.788795
0.453604 0.150969 0.783986
0.589011 0.151190 0.779429
0.719679 0.150992 0.775159
0.845980 0.150206 0.771215
0.937267 0.117855 0.736800
1.000000 0.074169 0.692307
0.013833 0.308331 0.806893
0.181270 0.308404 0.801209
0.328015 0.304713 0.780832
0.465898 0.303215 0.776724
0.597028 0.300707 0.773153
0.723029 0.297530 0.769959
0.845694 0.294425 0.766854
0.935536 0.261489 0.733918
1.000000 0.217536 0.689965
0.024803 0.453829 0.800027
0.186743 0.450358 0.795636
0.328849 0.446724 0.791966
0.463727 0.438887 0.773023
0.593633 0.435598 0.769734
0.719615 0.432409 0.766545
0.842279 0.429303 0.763439
0.933317 0.397562 0.731699
1.000000 0.353607 0.687793
0.022514 0.585679 0.796437
0.183454 0.581563 0.792281
0.325560 0.577930 0.788612
0.460438 0.574481 0.785129
0.590333 0.565500 0.766449
0.716047 0.562208 0.763340
0.838142 0.558885 0.760408
0.930103 0.528566 0.730642
1.000000 0.484580 0.687335
0.019325 0.712920 0.793184
0.180238 0.708794 0.789036
0.321967 0.705015 0.785483
0.456122 0.701287 0.782224
0.585053 0.697588 0.779171
0.709878 0.687049 0.761054
0.831265 0.683455 0.758336
0.925280 0.655525 0.731332
1.000000 0.611526 0.688278
0.015253 0.828156 0.774819
0.175009 0.823629 0.771103
0.315789 0.819523 0.767908
0.449231 0.815559 0.764928
0.577648 0.811700 0.762091
0.702135 0.807939 0.759355
0.872747 0.820363 0.756690
0.956843 0.775357 0.712699
1.000000 0.728860 0.667138
0.000000 0.923251 0.749577
0.146155 0.920148 0.747728
0.288061 0.917390 0.746126
0.422753 0.914774 0.744603
0.552534 0.912270 0.743110
0.678488 0.909868 0.741614
0.801255 0.907567 0.740093
0.952161 0.898550 0.713329
1.000000 0.852065 0.667379
0.000000 0.998231 0.707631
0.098208 0.995123 0.705790
0.240279 0.992412 0.704105
0.375282 0.989886 0.702425
0.505505 0.987508 0.700709
0.632021 0.985268 0.698929
0.755462 0.983160 0.697068
0.876220 0.981175 0.695122
1.000000 0.972606 0.665899
0.000000 0.000000 0.909421
0.136053 0.000000 0.906713
0.281967 0.000000 0.904021
0.422181 0.000000 0.901227
0.558397 0.000000 0.898374
0.691225 0.000000 0.895506
0.820903 0.000000 0.892666
0.927345 0.000000 0.869724
1.000000 0.000000 0.822872
0.000000 0.129450 0.917170
0.151388 0.136581 0.901570
0.301640 0.138823 0.898277
0.444182 0.140906 0.895160
0.580996 0.142597 0.892225
0.712860 0.143693 0.889490
0.840140 0.144022 0.886983
0.935616 0.116026 0.857322
1.000000 0.072200 0.813111
0.000000 0.289366 0.911608
0.164641 0.291227 0.907955
0.318936 0.295247 0.893216
0.457724 0.294833 0.890620
0.589503 0.293175 0.888382
0.716600 0.291102 0.886309
0.840352 0.289083 0.884290
0.933566 0.259519 0.854726
1.000000 0.215565 0.810772
0.007566 0.436379 0.907331
0.170489 0.434074 0.904555
0.313879 0.431725 0.902170
0.456226 0.431386 0.888300
0.587283 0.429248 0.886163
0.714381 0.427175 0.884089
0.838133 0.425156 0.882071
0.931346 0.395592 0.852506
1.000000 0.351633 0.808661
0.005980 0.569114 0.905076
0.168374 0.566454 0.902375
0.311765 0.564104 0.899990
0.447862 0.561875 0.897726
0.585080 0.560277 0.884037
0.711761 0.558019 0.882038
0.834782 0.555678 0.880149
0.927922 0.526585 0.851661
1.000000 0.482597 0.808393
0.003929 0.697494 0.902962
0.166224 0.694789 0.900278
0.309063 0.692194 0.897993
0.444254 0.689559 0.895894
0.574171 0.686892 0.893924
0.706114 0.683537 0.880601
0.827784 0.680251 0.878219
0.923002 0.653539 0.852449
0.998222 0.609540 0.809402
0.000571 0.821886 0.901150
0.161549 0.818593 0.898705
0.303402 0.815558 0.896599
0.437863 0.812598 0.894632
0.567269 0.809702 0.892755
0.692728 0.806878 0.890941
0.819840 0.801064 0.876580
0.917853 0.777133 0.853576
0.993177 0.733139 0.810424
0.000000 0.921169 0.870581
0.143770 0.918058 0.868745
0.285671 0.915300 0.867145
0.420375 0.912687 0.865617
0.550182 0.910190 0.864110
0.676175 0.907799 0.862595
0.798993 0.905513 0.861047
0.949890 0.896577 0.834379
1.000000 0.850094 0.788372
0.000000 0.996141 0.828647
0.095853 0.993042 0.826792
0.237967 0.990344 0.825085
0.373027 0.987833 0.823376
0.503320 0.985476 0.821625
0.629917 0.983259 0.819804
0.753451 0.981178 0.817896
0.874250 0.979205 0.815930
1.000000 0.970639 0.786770
0.000000 0.000000 0.985543
0.092597 0.000000 0.982766
0.239081 0.000000 0.979995
0.379703 0.000000 0.977144
0.516193 0.000000 0.974253
0.649171 0.000000 0.971365
0.778890 0.000000 0.968519
0.905436 0.000000 0.965752
1.000000 0.000000 0.940097
0.000000 0.085793 0.994573
0.109341 0.093896 0.977428
0.259621 0.096156 0.974130
0.402059 0.098170 0.971028
0.538651 0.099713 0.968123
0.670187 0.100592 0.965435
0.797040 0.100636 0.962986
0.919401 0.099698 0.960800
1.000000 0.070273 0.931259
0.000000 0.245756 0.989001
0.121307 0.247390 0.985396
0.275970 0.251950 0.969201
0.414201 0.251165 0.966682
0.545549 0.249221 0.964504
0.672647 0.247148 0.962431
0.796399 0.245130 0.960412
0.917206 0.243159 0.958442
1.000000 0.213638 0.928921
0.000000 0.391816 0.984925
0.125716 0.389271 0.982200
0.269106 0.386922 0.979814
0.412272 0.387432 0.964422
0.543330 0.385295 0.962284
0.670428 0.383222 0.960211
0.794179 0.381203 0.958193
0.914964 0.379222 0.956226
1.000000 0.349702 0.926890
0.000000 0.524311 0.982720
0.123601 0.521651 0.980019
0.266991 0.519301 0.977634
0.403089 0.517072 0.975370
0.541035 0.516283 0.960175
0.667603 0.513976 0.958196
0.790531 0.511593 0.956324
0.910287 0.509158 0.954541
1.000000 0.480657 0.926796
0.000000 0.652691 0.980606
0.121342 0.649938 0.977942
0.264058 0.647287 0.975679
0.399152 0.644610 0.973597
0.528994 0.641909 0.971642
0.661702 0.639381 0.956805
0.783957 0.636702 0.955053
0.903224 0.634050 0.953357
0.995987 0.607597 0.927860
0.000000 0.776944 0.978851
0.116369 0.773609 0.976423
0.258161 0.770546 0.974328
0.392585 0.767569 0.972367
0.521973 0.764666 0.970494
0.647431 0.761842 0.968681
0.776578 0.758084 0.953989
0.895921 0.755467 0.952279
0.990998 0.731200 0.928825
0.000000 0.897034 0.977627
0.109509 0.893443 0.975304
0.251026 0.890257 0.973258
0.385392 0.887255 0.971308
0.514911 0.884410 0.969411
0.640671 0.881720 0.967543
0.763319 0.879190 0.965688
0.890211 0.874621 0.950975
0.987265 0.851919 0.928626
0.000000 0.994100 0.946997
0.093560 0.991009 0.945125
0.235721 0.988325 0.943394
0.370842 0.985832 0.941655
0.501207 0.983496 0.939867
0.627888 0.981303 0.938004
0.751515 0.979248 0.936048
0.872323 0.977278 0.934078
1.000000 0.968714 0.904981
